material/.icons/material/qrcode-plus.svg

<svg xmlns="http://www.w3.org/2000/svg" viewBox="0 0 24 24"><path d="M5 5h2v2H5V5M1 1h10v10H1V1m2 2v6h6V3H3m2 14h2v2H5v-2m-4-4h10v10H1V13m2 2v6h6v-6H3m10-2h4v2h2v-2h4v2h-4v2h4v6h-4v-2h-4v2h-2v-2h2v-2h-2v-6m8 8v-2h-2v2h2m-2-4h-2v-2h-2v4h4v-2M17 2v3h-3v2h3v3h2V7h3V5h-3V2z"/></svg>

<?xml version="1.0" encoding="UTF-8"?><!DOCTYPE svg PUBLIC "-//W3C//DTD SVG 1.1//EN" "http://www.w3.org/Graphics/SVG/1.1/DTD/svg11.dtd"><svg xmlns="http://www.w3.org/2000/svg" xmlns:xlink="http://www.w3.org/1999/xlink" version="1.1" id="mdi-qrcode-plus" width="24" height="24" viewBox="0 0 24 24"><path d="M5 5H7V7H5V5M1 1H11V11H1V1M3 3V9H9V3H3M5 17H7V19H5V17M1 13H11V23H1V13M3 15V21H9V15H3M13 13H17V15H19V13H23V15H19V17H23V23H19V21H15V23H13V21H15V19H13V13M21 21V19H19V21H21M19 17H17V15H15V19H19V17M17 2V5H14V7H17V10H19V7H22V5H19V2Z" /></svg>
